static/images/materials.svg

<svg width="32" height="37" viewBox="0 0 32 37" fill="none" xmlns="http://www.w3.org/2000/svg">
<path d="M0 9.25V27.75L15.6 37L31.2 27.75V9.25L15.6 0L0 9.25Z" fill="#FBC5B4"/>
<path d="M18.33 22.1243C18.33 22.9052 17.6725 23.5627 16.8916 23.5627H14.8365C14.0557 23.5627 13.3981 22.9052 13.3981 22.1243L13.398 21.0967H6.00024V24.3846C6.00024 25.0833 6.53454 25.6176 7.23329 25.6176H24.4953C25.1528 25.6176 25.7283 25.0833 25.7283 24.3846V21.0967H18.3302L18.33 22.1243Z" fill="#090940"/>
<path d="M24.4948 12.4661H19.1518V11.233C19.1518 10.5343 18.5764 10 17.9188 10H13.8089C13.48 10 13.1513 10.1233 12.9457 10.3699C12.6993 10.6166 12.576 10.9043 12.576 11.233V12.4661H7.23304C6.5343 12.4661 6 13.0004 6 13.6991V20.2751H13.3981V19.2477C13.3981 18.4668 14.0557 17.8093 14.8365 17.8093H16.8916C17.6725 17.8093 18.33 18.4668 18.33 19.2477V20.2751H25.7281L25.728 13.6991C25.728 13.0004 25.1525 12.4661 24.4949 12.4661L24.4948 12.4661ZM13.3978 11.233C13.3978 11.1098 13.439 11.0276 13.5211 10.9453C13.6034 10.8632 13.6855 10.822 13.8088 10.822H17.9187C18.1241 10.822 18.3297 11.0275 18.3297 11.2331V12.4661H13.3978L13.3978 11.233Z" fill="#090940"/>
<path d="M16.8915 22.7408C17.2203 22.7408 17.5079 22.4531 17.5079 22.1244L17.508 21.0968V19.2473C17.508 18.9184 17.2203 18.6309 16.8916 18.6309H14.8365C14.5077 18.6309 14.2201 18.9186 14.2201 19.2473L14.22 20.2749V22.1244C14.22 22.4532 14.5077 22.7408 14.8364 22.7408H16.8915Z" fill="#090940"/>
</svg>

<svg width="32" height="37" fill="none" xmlns="http://www.w3.org/2000/svg">
    <path d="M0 9.25v18.5L15.6 37l15.6-9.25V9.25L15.6 0 0 9.25Z" fill="#FBC5B4"/>
    <path d="M18.33 22.124c0 .781-.657 1.439-1.438 1.439h-2.056c-.78 0-1.438-.658-1.438-1.439v-1.027H6v3.288c0 .698.535 1.233 1.233 1.233h17.262c.658 0 1.233-.535 1.233-1.233v-3.288H18.33v1.027ZM24.495 12.466h-5.343v-1.233c0-.699-.576-1.233-1.233-1.233h-4.11c-.329 0-.658.123-.863.37-.247.247-.37.534-.37.863v1.233H7.233C6.534 12.466 6 13 6 13.7v6.576h7.398v-1.027c0-.781.658-1.439 1.438-1.439h2.056c.78 0 1.438.658 1.438 1.439v1.027h7.398V13.7c0-.699-.576-1.233-1.233-1.233Zm-11.097-1.233c0-.123.041-.205.123-.288a.374.374 0 0 1 .288-.123h4.11c.205 0 .41.206.41.411v1.233h-4.931v-1.233Z" fill="#090940"/>
    <path d="M16.892 22.74a.632.632 0 0 0 .616-.616v-2.877a.632.632 0 0 0-.616-.616h-2.056a.632.632 0 0 0-.616.616v2.878c0 .328.288.616.616.616h2.056Z" fill="#090940"/>
</svg>
